file/epa.svg

<svg clip-rule="evenodd" fill-rule="evenodd" stroke-linejoin="round" stroke-miterlimit="1.41421" viewBox="0 0 560 400" xmlns="http://www.w3.org/2000/svg"><g fill="#005eb8" fill-rule="nonzero" transform="matrix(1.65091 0 0 1.65091 -89.8806 -77.4402)"><path d="m167.512 146.179c1.405 2.808 2.16 5.94 2.16 9.396l-.324.108-18.36-.108-.107-.108c2.159-1.08 3.672-3.348 3.455-5.724 0-2.376-1.728-4.644-3.78-5.4-1.62-.756-3.78-.432-5.292.432-2.268 1.512-3.132 3.996-2.7 6.588.432 1.728 1.728 3.456 3.348 4.104-6.264.108-12.204 0-18.468 0-.216-7.452 3.672-14.04 10.044-18.144 5.94-3.78 15.12-4.104 21.168-.432 3.672 1.836 7.129 5.508 8.857 9.288z"/><path d="m145.913 162.055c1.08-.324 1.944-.972 2.7-1.728 1.944 1.944 4.968 2.7 7.56 1.728.972-.432 1.835-.972 2.7-1.728 1.944 1.836 4.859 2.7 7.452 1.728.972-.432 1.836-.972 2.592-1.62-1.08 7.236-8.316 14.364-15.552 15.876-8.424 1.836-16.308-.972-21.708-7.668-1.944-2.484-3.24-5.292-3.78-8.208l.108-.108c1.944 1.944 4.86 2.7 7.56 1.728 1.08-.432 1.944-.972 2.808-1.836 1.943 1.944 4.859 2.808 7.56 1.836z"/><path d="m144.401 188.515c1.728 3.996 2.699 8.424 2.699 13.068l-.108.216c-12.744-.432-25.272-9.396-29.7-21.384-1.512-3.996-2.376-8.424-2.268-13.068l.108-.216c12.42.648 24.732 9.612 29.268 21.384z"/><path d="m182.093 167.671c.324 13.284-7.668 26.028-19.873 31.32-3.78 1.728-7.992 2.7-12.528 2.808-.216-2.916.433-5.724.973-8.424 2.376-11.232 12.744-21.924 23.868-24.84 2.376-.756 4.968-1.188 7.56-1.296z"/><path d="m230.044 146.287h-28.944l-.108 16.524 29.161.108v10.476h-29.161v16.956l29.052.108v10.26l-42.336-.108v-64.8l42.444.108z"/><path d="m307.697 136.351h-16.201l-24.948 64.26.108.108c4.645.108 9.504.108 14.256 0 2.052-5.616 3.996-11.232 6.264-16.74l25.38.108 6.372 16.848h14.148zm.863 36.936h-17.496l-.108-.108 8.749-24.084.215.432 8.64 23.544z"/><path d="m259.852 136.243c6.048 0 10.909 1.296 14.689 4.752s5.616 8.424 5.616 13.932c0 5.616-1.944 10.584-5.724 14.04s-8.856 4.752-15.12 4.752h-12.528v27.108h-13.392v-64.584zm-3.563 26.784c6.695 0 9.611-3.024 9.611-8.1 0-5.94-2.916-8.64-10.476-8.64h-8.532v16.848h9.396z"/></g></svg>

<?xml version="1.0" encoding="UTF-8" standalone="no"?>
<!DOCTYPE svg PUBLIC "-//W3C//DTD SVG 1.1//EN" "http://www.w3.org/Graphics/SVG/1.1/DTD/svg11.dtd">
<svg width="100%" height="100%" viewBox="0 0 560 400" version="1.1" xmlns="http://www.w3.org/2000/svg" xmlns:xlink="http://www.w3.org/1999/xlink" xml:space="preserve" xmlns:serif="http://www.serif.com/" style="fill-rule:evenodd;clip-rule:evenodd;stroke-linejoin:round;stroke-miterlimit:1.41421;">
    <g transform="matrix(1.65091,0,0,1.65091,-89.8806,-77.4402)">
        <path d="M167.512,146.179C168.917,148.987 169.672,152.119 169.672,155.575L169.348,155.683L150.988,155.575L150.881,155.467C153.04,154.387 154.553,152.119 154.336,149.743C154.336,147.367 152.608,145.099 150.556,144.343C148.936,143.587 146.776,143.911 145.264,144.775C142.996,146.287 142.132,148.771 142.564,151.363C142.996,153.091 144.292,154.819 145.912,155.467C139.648,155.575 133.708,155.467 127.444,155.467C127.228,148.015 131.116,141.427 137.488,137.323C143.428,133.543 152.608,133.219 158.656,136.891C162.328,138.727 165.785,142.399 167.513,146.179Z" style="fill:rgb(0,94,184);fill-rule:nonzero;"/>
        <path d="M145.913,162.055C146.993,161.731 147.857,161.083 148.613,160.327C150.557,162.271 153.581,163.027 156.173,162.055C157.145,161.623 158.008,161.083 158.873,160.327C160.817,162.163 163.732,163.027 166.325,162.055C167.297,161.623 168.161,161.083 168.917,160.435C167.837,167.671 160.601,174.799 153.365,176.311C144.941,178.147 137.057,175.339 131.657,168.643C129.713,166.159 128.417,163.351 127.877,160.435L127.985,160.327C129.929,162.271 132.845,163.027 135.545,162.055C136.625,161.623 137.489,161.083 138.353,160.219C140.296,162.163 143.212,163.027 145.913,162.055Z" style="fill:rgb(0,94,184);fill-rule:nonzero;"/>
        <path d="M144.401,188.515C146.129,192.511 147.1,196.939 147.1,201.583L146.992,201.799C134.248,201.367 121.72,192.403 117.292,180.415C115.78,176.419 114.916,171.991 115.024,167.347L115.132,167.131C127.552,167.779 139.864,176.743 144.4,188.515Z" style="fill:rgb(0,94,184);fill-rule:nonzero;"/>
        <path d="M182.093,167.671C182.417,180.955 174.425,193.699 162.22,198.991C158.44,200.719 154.228,201.691 149.692,201.799C149.476,198.883 150.125,196.075 150.665,193.375C153.041,182.143 163.409,171.451 174.533,168.535C176.909,167.779 179.501,167.347 182.093,167.239L182.093,167.671L182.093,167.671Z" style="fill:rgb(0,94,184);fill-rule:nonzero;"/>
        <path d="M230.044,146.287L201.1,146.287L200.992,162.811L230.153,162.919L230.153,173.395L200.992,173.395L200.992,190.351L230.044,190.459L230.044,200.719L187.708,200.611L187.708,135.811L230.152,135.919L230.044,146.287Z" style="fill:rgb(0,94,184);fill-rule:nonzero;"/>
        <path d="M307.697,136.351L291.496,136.351L266.548,200.611L266.656,200.719C271.301,200.827 276.16,200.827 280.912,200.719C282.964,195.103 284.908,189.487 287.176,183.979L312.556,184.087L318.928,200.935L333.076,200.935L307.697,136.351ZM308.56,173.287L291.064,173.287L290.956,173.179L299.705,149.095L299.92,149.527L308.56,173.071L308.56,173.287Z" style="fill:rgb(0,94,184);fill-rule:nonzero;"/>
        <path d="M259.852,136.243C265.9,136.243 270.761,137.539 274.541,140.995C278.321,144.451 280.157,149.419 280.157,154.927C280.157,160.543 278.213,165.511 274.433,168.967C270.653,172.423 265.577,173.719 259.313,173.719L246.785,173.719L246.785,200.827L233.393,200.827L233.393,136.243L259.852,136.243ZM256.289,163.027C262.984,163.027 265.9,160.003 265.9,154.927C265.9,148.987 262.984,146.287 255.424,146.287L246.892,146.287L246.892,163.135L256.288,163.135L256.289,163.027Z" style="fill:rgb(0,94,184);fill-rule:nonzero;"/>
    </g>
</svg>
